X:1
T:Mug of Brown Ale
M:6/8
L:1/8
R:Jig
K:Ador
|: "Am"eAA fAA | gfg age \
|1 "G"dBA GFG | BAB dBd \
:|2 "G"dBd gdB | BAG "Am"A3 |]
|: "Am"efg aba | aba age \
|1 "G"dBd g3  | gba ged \
:|2 "G"dBd gdB | BAG "Am"A3 |]
